contributed-vectors/pixilart.svg

<svg xmlns="http://www.w3.org/2000/svg" width="192" height="192" fill="none"><path fill="#FF837D" stroke="#FF837D" stroke-linecap="round" stroke-linejoin="round" d="M162 20H30c-5.523 0-10 4.477-10 10v132c0 5.523 4.477 10 10 10h132c5.523 0 10-4.477 10-10V30c0-5.523-4.477-10-10-10Z"/><path fill="#ECECEC" d="M65 96.625V79h9v-9h17.625v9h8.625v-8.625h17.625V79h8.625v17.25h-8.625v9h-8.625v7.875h-9v9h-8.625v-9H82.25v-7.5H74v-9h-9Z"/></svg>

<svg width="192" height="192" viewBox="0 0 192 192" fill="none" xmlns="http://www.w3.org/2000/svg">
<path d="M162 20H30C24.4772 20 20 24.4772 20 30V162C20 167.523 24.4772 172 30 172H162C167.523 172 172 167.523 172 162V30C172 24.4772 167.523 20 162 20Z" fill="#FF837D" stroke="#FF837D" stroke-linecap="round" stroke-linejoin="round"/>
<path d="M65 96.625V79H74V70H91.625V79H100.25V70.375H117.875V79H126.5V96.25H117.875V105.25H109.25V113.125H100.25V122.125H91.625V113.125H82.25V105.625H74V96.625H65Z" fill="#ECECEC"/>
</svg>
